nova/resources/svg/fluent/image.svg

<svg viewBox="0 0 24 24" fill="none" xmlns="http://www.w3.org/2000/svg">
<path d="M17.75 3C19.5449 3 21 4.45507 21 6.25V17.75C21 19.5449 19.5449 21 17.75 21H6.25C4.45507 21 3 19.5449 3 17.75V6.25C3 4.45507 4.45507 3 6.25 3H17.75ZM18.3305 19.4014L12.5247 13.7148C12.2596 13.4553 11.8501 13.4316 11.5588 13.644L11.4752 13.7148L5.66845 19.4011C5.8504 19.4651 6.04613 19.5 6.25 19.5H17.75C17.9535 19.5 18.1489 19.4653 18.3305 19.4014L12.5247 13.7148L18.3305 19.4014ZM17.75 4.5H6.25C5.2835 4.5 4.5 5.2835 4.5 6.25V17.75C4.5 17.9584 4.53643 18.1583 4.60326 18.3437L10.4258 12.643C11.2589 11.8273 12.5675 11.7885 13.4458 12.5266L13.5742 12.6431L19.3964 18.3447C19.4634 18.159 19.5 17.9588 19.5 17.75V6.25C19.5 5.2835 18.7165 4.5 17.75 4.5ZM15.2521 6.5C16.4959 6.5 17.5042 7.50831 17.5042 8.75212C17.5042 9.99592 16.4959 11.0042 15.2521 11.0042C14.0083 11.0042 13 9.99592 13 8.75212C13 7.50831 14.0083 6.5 15.2521 6.5ZM15.2521 8C14.8367 8 14.5 8.33673 14.5 8.75212C14.5 9.1675 14.8367 9.50423 15.2521 9.50423C15.6675 9.50423 16.0042 9.1675 16.0042 8.75212C16.0042 8.33673 15.6675 8 15.2521 8Z" fill="currentColor"/>
</svg>

<svg viewBox="0 0 24 24" xmlns="http://www.w3.org/2000/svg"><title>ic_fluent_image_24_regular</title><path d="M17.75 3A3.25 3.25 0 0121 6.25v11.5A3.25 3.25 0 0117.75 21H6.25A3.25 3.25 0 013 17.75V6.25A3.25 3.25 0 016.25 3h11.5zm.58 16.401l-5.805-5.686a.75.75 0 00-.966-.071l-.084.07-5.807 5.687c.182.064.378.099.582.099h11.5c.203 0 .399-.035.58-.099l-5.805-5.686L18.33 19.4zM17.75 4.5H6.25A1.75 1.75 0 004.5 6.25v11.5c0 .208.036.408.103.594l5.823-5.701a2.25 2.25 0 013.02-.116l.128.116 5.822 5.702c.067-.186.104-.386.104-.595V6.25a1.75 1.75 0 00-1.75-1.75zm-2.498 2a2.252 2.252 0 110 4.504 2.252 2.252 0 010-4.504zm0 1.5a.752.752 0 100 1.504.752.752 0 000-1.504z" fill="currentColor" fill-rule="nonzero"/></svg>
